X:313
T: VATER IST DENN NICHT ERSCHAFFEN
N: E0922
O: Europa, Mitteleuropa, Deutschland, Niederrhein
R: Ehestands - Lied, Nonnen - Klage
M: 3/4
L: 1/8
K: Bb
 | BFF2B2 | cBAF
FE | D2B2Ac | c2B2z2
BFF2B2 | cBAF
FE | D2B2Ac | c2B2z2
ABc2d2 | edc2B2
ABc2d2 | edcB
AG | F2B2Ac | c2B2z2

